; HEADER_BLOCK_START
; generated by Creality_Print V7.0.0.4127 on 2026-01-16 at 18:58:06
; total layer number: 172
; filament_density: 1.24
; filament_diameter: 1.75
; max_z_height: 31.60
; creality_uuid: 696f600d-0b07-442b-8822-b3ef61bd72f8
; HEADER_BLOCK_END

; MINX = 88.09
; MINY = 88.09
; MINZ = 0.00
; MAXX = 131.91
; MAXY = 131.91
; MAXZ = 31.52

; multicolor_method = 0 
; THUMBNAIL_BLOCK_START

;
; THUMBNAIL_BLOCK_END

; external perimeters extrusion width = 0.42mm
; perimeters extrusion width = 0.45mm
; infill extrusion width = 0.45mm
; solid infill extrusion width = 0.45mm
; top infill extrusion width = 0.42mm
; support material extrusion width = 0.38mm
; first layer extrusion width = 0.50mm

; EXECUTABLE_BLOCK_START
M73 P0 R53
M201 X500 Y500 Z100 E5000
M203 X500 Y500 Z10 E50
M204 P5000 R500 T5000
M205 X12.00 Y12.00 Z0.40 E5.00 ; sets the jerk limits, mm/sec
; max_print_temp = 60,200
;TYPE:Custom
G90 ; use absolute coordinates
M83 ; extruder relative mode
M140 S60 ; set final bed temp
M104 S150 ; set temporary nozzle temp to prevent oozing during homing
G4 S10 ; allow partial nozzle warmup
G28 ; home all axis
G1 Z50 F240
G1 X2 Y10 F3000
M104 S200 ; set final nozzle temp
M190 S60 ; wait for bed temp to stabilize
M109 S200 ; wait for nozzle temp to stabilize
G1 Z0.28 F240
G92 E0
G1 Y140 E10 F1500 ; prime the nozzle
M73 P1 R53
G1 X2.3 F5000
G92 E0
G1 Y10 E10 F1200 ; prime the nozzle
G92 E0
G90
G21
M83 ; use relative distances for extrusion
; filament start gcode
G1 E-6 F2400
G1 Z.2 F5760
M106 S0
;LAYER_CHANGE
;:0.2
;HEIGHT:0.2
;BEFORE_LAYER_CHANGE
;0.2
G92 E0

;_SET_FAN_SPEED_CHANGING_LAYER
M204 S500
M205 X8 Y8
; OBJECT_ID: 68
; printing object F93EPATJ80GQ9UO (1).stl.stl id:0 copy 0
G1 X104.872 Y101.489 Z.4 F5760
G1 Z.2
G1 E6 F2400
;TYPE:Support interface
;WIDTH:0.38
G1 F1200
G1 X104.326 Y101.489 E.0153
G1 X104.326 Y101.958 E.01316
G1 X108.89 Y106.523 E.18092
G2 X108.074 Y106.89 I.562 J2.339 E.02524
G1 X104.326 Y103.142 E.14856
G1 X104.326 Y104.326 E.03318
G1 X107.406 Y107.406 E.12209
G2 X106.889 Y108.073 I6.598 J5.649 E.02366
G1 X103.142 Y104.326 E.14852
G1 X101.958 Y104.326 E.03318
G1 X106.52 Y108.888 E.18083
G2 X106.339 Y109.89 I2.53 J.976 E.02872
G1 X101.489 Y105.04 E.19224
G1 X101.489 Y106.224 E.03318
G1 X106.581 Y111.317 E.20186
G2 X108.682 Y113.418 I3.357 J-1.256 E.08587
G1 X113.776 Y118.511 E.2019
G1 X114.96 Y118.511 E.03318
G1 X110.109 Y113.66 E.19229
G2 X111.111 Y113.479 I.026 J-2.712 E.02872
G1 X115.674 Y118.042 E.18087
G1 X115.674 Y116.858 E.03318
G1 X111.926 Y113.11 E.14857
G2 X112.593 Y112.593 I-4.972 J-7.113 E.02366
G1 X115.674 Y115.674 E.12211
G1 X116.858 Y115.674 E.03318
G1 X113.11 Y111.926 E.14858
G2 X113.477 Y111.11 I-1.976 J-1.381 E.02524
G1 X118.042 Y115.674 E.18093
G1 X118.511 Y115.674 E.01316
G1 X118.511 Y114.96 E.02002
G1 X113.656 Y110.105 E.19244
G3 X113.526 Y110.948 I-2.283 J.08 E.02407
G1 E-4.2 F2400
;WIPE_START
G1 F1200
G1 X113.656 Y110.105 E-.72979
G1 X114.467 Y110.915 E-.98021
;WIPE_END
G1 E-.09 F2400
G1 Z.4 F5760
G1 X118.511 Y110.056 Z.4
G1 Z.2
G1 E6 F2400
G1 F1200
G1 X118.511 Y109.041 E.02846
G1 X110.959 Y101.489 E.29935
G1 X112.143 Y101.489 E.03318
M73 P1 R52
G1 X118.511 Y107.857 E.25242
G1 X118.511 Y106.842 E.02846
G1 X118.511 Y105.321 F5760
G1 F1200
G1 X118.511 Y104.326 E.02789
G1 X117.348 Y104.326 E.03261
G1 X118.511 Y105.489 E.04612
G1 X118.511 Y106.673 E.03318
G1 X116.164 Y104.326 E.09304
G1 X115.674 Y104.326 E.01373
G1 X115.674 Y103.836 E.01373
G1 X113.327 Y101.489 E.09304
G1 X114.511 Y101.489 E.03318
G1 X115.674 Y102.652 E.04612
G1 X115.674 Y101.489 E.03261
G1 X114.679 Y101.489 E.02789
G1 E-4.2 F2400
;WIPE_START
G1 F1200
G1 X115.674 Y101.489 E-.85074
G1 X115.674 Y102.494 E-.85926
;WIPE_END
G1 E-.09 F2400
G1 Z.4 F5760
G1 X110.791 Y101.489 Z.4
G1 Z.2
G1 E6 F2400
G1 F1200
G1 X109.775 Y101.489 E.02846
G1 X118.511 Y110.225 E.34627
G1 X118.511 Y111.408 E.03318
G1 X108.592 Y101.489 E.3932
G1 X107.408 Y101.489 E.03318
G1 X118.511 Y112.592 E.44012
G1 X118.511 Y113.776 E.03318
G1 X113.411 Y108.675 E.20218
G2 X111.325 Y106.59 I-3.356 J1.27 E.0852
G1 X106.224 Y101.489 E.20219
G1 X105.04 Y101.489 E.03318
G1 X109.894 Y106.343 E.1924
G2 X109.051 Y106.474 I-.074 J2.306 E.02404
G1 E-4.2 F2400
;WIPE_START
G1 F1200
G1 X109.894 Y106.343 E-.72919
G1 X109.083 Y105.532 E-.98081
;WIPE_END
G1 E-.09 F2400
G1 Z.4 F5760
G1 X101.07 Y112.669 Z.4
G1 Z.2
G1 E6 F2400
;TYPE:Support
;WIDTH:0.5
G1 F1200
G1 X101.07 Y116.093 E.13014
G1 X103.907 Y116.093 E.10783
G1 X103.907 Y118.93 E.10783
G1 X106.244 Y118.93 E.08882
G1 X106.244 Y123.267 E.16483
G1 X93.896 Y123.267 E.46931
G1 X93.896 Y110.919 E.46931
M73 P2 R52
G1 X101.07 Y110.919 E.27266
G1 X101.07 Y112.6 E.0639
G1 E-4.2 F2400
;WIPE_START
G1 F1200
G1 X101.07 Y110.919 E-1.43753
G1 X100.751 Y110.919 E-.27247
;WIPE_END
G1 E-.09 F2400
G1 Z.4 F5760
G1 X104.134 Y122.855 Z.4
G1 Z.2
G1 E6 F2400
G1 F1200
G1 X104.413 Y122.855 E.01062
G1 X104.413 Y119.341 E.13356
G1 X104.921 Y119.341 E.0193
G1 X104.921 Y122.855 E.13356
G1 X105.429 Y122.855 E.0193
G1 X105.429 Y119.341 E.13356
G1 X105.833 Y119.341 E.01534
G1 X105.833 Y122.855 E.13356
G1 X105.658 Y122.855 E.00666
G1 X94.535 Y111.33 F5760
G1 F1200
G1 X94.308 Y111.33 E.00866
G1 X94.308 Y122.855 E.43804
G1 X94.764 Y122.855 E.01735
G1 X94.764 Y111.33 E.43804
G1 X95.272 Y111.33 E.0193
G1 X95.272 Y122.855 E.43804
G1 X95.78 Y122.855 E.0193
G1 X95.78 Y111.33 E.43804
G1 X96.288 Y111.33 E.0193
G1 X96.288 Y122.855 E.43804
G1 X96.795 Y122.855 E.0193
G1 X96.795 Y111.33 E.43804
G1 X97.303 Y111.33 E.0193
G1 X97.303 Y122.855 E.43804
G1 X97.811 Y122.855 E.0193
G1 X97.811 Y111.33 E.43804
G1 X98.319 Y111.33 E.0193
G1 X98.319 Y122.855 E.43804
G1 X98.827 Y122.855 E.0193
G1 X98.827 Y111.33 E.43804
G1 X99.335 Y111.33 E.0193
G1 X99.335 Y122.855 E.43804
G1 X99.843 Y122.855 E.0193
G1 X99.843 Y111.33 E.43804
G1 X100.351 Y111.33 E.0193
G1 X100.351 Y122.855 E.43804
G1 X100.858 Y122.855 E.0193
G1 X100.858 Y116.504 E.24139
G1 X101.366 Y116.504 E.0193
G1 X101.366 Y122.855 E.24139
G1 X101.874 Y122.855 E.0193
G1 X101.874 Y116.504 E.24139
G1 X102.382 Y116.504 E.0193
G1 X102.382 Y122.855 E.24139
G1 X102.89 Y122.855 E.0193
G1 X102.89 Y116.504 E.24139
G1 X103.398 Y116.504 E.0193
G1 X103.398 Y122.855 E.24139
G1 X103.906 Y122.855 E.0193
G1 X103.906 Y119.341 E.13356
G1 X104.185 Y119.341 E.01062
G1 X105.321 Y118.511 F5760
;TYPE:Support interface
;WIDTH:0.38
G1 F1200
G1 X104.326 Y118.511 E.02789
G1 X104.326 Y117.348 E.03261
G1 X105.489 Y118.511 E.04612
G1 X106.673 Y118.511 E.03318
G1 X104.326 Y116.164 E.09305
G1 X104.326 Y115.674 E.01373
G1 X103.836 Y115.674 E.01373
G1 X101.489 Y113.327 E.09305
G1 X101.489 Y112.143 E.03318
G1 X107.857 Y118.511 E.25243
G1 X109.041 Y118.511 E.03318
G1 X101.489 Y110.959 E.29935
G1 X101.489 Y109.775 E.03318
G1 X110.225 Y118.511 E.34627
G1 X111.408 Y118.511 E.03318
G1 X101.489 Y108.592 E.3932
G1 X101.489 Y107.408 E.03318
G1 X112.592 Y118.511 E.44012
G1 X111.577 Y118.511 E.02846
G1 E-4.2 F2400
;WIPE_START
G1 F1200
G1 X112.592 Y118.511 E-.86806
G1 X111.896 Y117.815 E-.84194
;WIPE_END
G1 E-.09 F2400
G1 Z.4 F5760
G1 X101.489 Y114.679 Z.4
G1 Z.2
G1 E6 F2400
G1 F1200
G1 X101.489 Y115.674 E.02789
G1 X102.652 Y115.674 E.03261
G1 X101.489 Y114.511 E.04612
G1 X101.489 Y113.495 E.02846
G1 E-4.2 F2400
;WIPE_START
G1 F1200
G1 X101.489 Y114.511 E-.86806
G1 X102.185 Y115.207 E-.84194
;WIPE_END
G1 E-.09 F2400
G1 Z.4 F5760
G1 X126.104 Y123.267 Z.4
G1 Z.2
G1 E6 F2400
;TYPE:Support
;WIDTH:0.5
G1 F1200
G1 X113.756 Y123.267 E.46931
G1 X113.756 Y118.93 E.16483
G1 X116.093 Y118.93 E.08882
G1 X116.093 Y116.093 E.10783
G1 X118.93 Y116.093 E.10783
G1 X118.93 Y110.919 E.19665
G1 X126.104 Y110.919 E.27266
G1 X126.104 Y123.198 E.4667
G1 X119.878 Y122.855 F5760
G1 F1200
G1 X120.157 Y122.855 E.01062
G1 X120.157 Y111.33 E.43804
G1 X120.665 Y111.33 E.0193
G1 X120.665 Y122.855 E.43804
G1 X121.173 Y122.855 E.0193
G1 X121.173 Y111.33 E.43804
G1 X121.681 Y111.33 E.0193
G1 X121.681 Y122.855 E.43804
G1 X122.189 Y122.855 E.0193
G1 X122.189 Y111.33 E.43804
G1 X122.697 Y111.33 E.0193
G1 X122.697 Y122.855 E.43804
G1 X123.205 Y122.855 E.0193
G1 X123.205 Y111.33 E.43804
G1 X123.712 Y111.33 E.0193
G1 X123.712 Y122.855 E.43804
G1 X124.22 Y122.855 E.0193
G1 X124.22 Y111.33 E.43804
G1 X124.728 Y111.33 E.0193
G1 X124.728 Y122.855 E.43804
G1 X125.236 Y122.855 E.0193
G1 X125.236 Y111.33 E.43804
G1 X125.692 Y111.33 E.01735
G1 X125.692 Y122.855 E.43804
G1 X125.465 Y122.855 E.00866
G1 X115.815 Y119.341 F5760
G1 F1200
G1 X116.094 Y119.341 E.01062
G1 X116.094 Y122.855 E.13356
G1 X116.602 Y122.855 E.0193
G1 X116.602 Y116.504 E.24139
G1 X117.11 Y116.504 E.0193
G1 X117.11 Y122.855 E.24139
G1 X117.618 Y122.855 E.0193
M73 P3 R52
G1 X117.618 Y116.504 E.24139
G1 X118.126 Y116.504 E.0193
G1 X118.126 Y122.855 E.24139
G1 X118.634 Y122.855 E.0193
G1 X118.634 Y116.504 E.24139
G1 X119.142 Y116.504 E.0193
G1 X119.142 Y122.855 E.24139
G1 X119.649 Y122.855 E.0193
G1 X119.649 Y111.33 E.43804
G1 X119.341 Y111.33 E.01171
G1 X119.341 Y111.91 E.02205
G1 E-4.2 F2400
;WIPE_START
G1 F1200
G1 X119.341 Y111.33 E-.49611
G1 X119.649 Y111.33 E-.26351
G1 X119.649 Y112.442 E-.95039
;WIPE_END
G1 E-.09 F2400
G1 Z.4 F5760
G1 X114.342 Y122.855 Z.4
G1 Z.2
G1 E6 F2400
G1 F1200
G1 X114.167 Y122.855 E.00666
G1 X114.167 Y119.341 E.13356
G1 X114.571 Y119.341 E.01534
G1 X114.571 Y122.855 E.13356
G1 X115.079 Y122.855 E.0193
G1 X115.079 Y119.341 E.13356
G1 X115.587 Y119.341 E.0193
G1 X115.587 Y122.855 E.13356
G1 X115.866 Y122.855 E.01062
G1 E-4.2 F2400
;WIPE_START
G1 F1200
G1 X115.587 Y122.855 E-.23882
G1 X115.587 Y121.135 E-1.47118
;WIPE_END
G1 E-.09 F2400
G1 Z.4 F5760
G1 X110.056 Y110.285 Z.4
G1 Z.2
G1 E6 F2400
;TYPE:Inner wall
;WIDTH:0.643003
G1 F1200
G1 X109.879 Y110.285 E.00881
G1 X109.714 Y110.12 E.01168
G1 X109.714 Y109.885 E.01168
G1 X109.879 Y109.72 E.01167
G1 X110.114 Y109.72 E.01172
G1 X110.279 Y109.885 E.01165
G1 X110.279 Y110.12 E.01173
G1 X110.114 Y110.285 E.01165
G1 X110.096 Y110.285 E.00089
G1 X110.594 Y109.405 F5760
;TYPE:Outer wall
;WIDTH:0.499999
G1 F1200
G1 X110.777 Y109.679 E.01253
G1 X110.841 Y110.002 E.01253
G1 X110.777 Y110.326 E.01255
G1 X110.594 Y110.6 E.01252
G1 X110.32 Y110.783 E.01253
G1 X109.996 Y110.848 E.01255
G1 X109.673 Y110.783 E.01252
G1 X109.399 Y110.6 E.01251
G1 X109.216 Y110.326 E.01253
G1 X109.151 Y110.003 E.01252
G1 X109.216 Y109.679 E.01255
G1 X109.399 Y109.405 E.01254
G1 X109.673 Y109.222 E.01251
G1 X109.996 Y109.158 E.01253
G1 X110.32 Y109.222 E.01255
G1 X110.561 Y109.383 E.01101
; stop printing object F93EPATJ80GQ9UO (1).stl.stl id:0 copy 0
G1 E-4.2 F2400
;WIPE_START
G1 F1200
G1 X110.777 Y109.679 E-.31369
G1 X110.841 Y110.002 E-.28181
G1 X110.777 Y110.326 E-.28224
G1 X110.594 Y110.6 E-.2816
G1 X110.32 Y110.783 E-.28196
G1 X110.012 Y110.845 E-.26869
;WIPE_END
G1 E-.09 F2400
;TIME_ELAPSED:103.186127

M106 S255
;LAYER_CHANGE
;:0.4
;HEIGHT:0.2
;BEFORE_LAYER_CHANGE
;0.4
G92 E0

;_SET_FAN_SPEED_CHANGING_LAYER
M205 X12 Y12
; OBJECT_ID: 68
; printing object F93EPATJ80GQ9UO (1).stl.stl id:0 copy 0
M205 X8 Y8
G1 X115.147 Y112.759 Z.4 F7200
G1 E6 F2400
M205 X12 Y12
;TYPE:Support interface
;WIDTH:0.38
G1 F4800
G2 X115.666 Y111.437 I-3.172 J-2.01 E.04006
G1 X118.511 Y108.592 E.11277
G1 X118.511 Y107.408 E.03318
G1 X115.861 Y110.058 E.10507
G2 X115.766 Y108.969 I-3.365 J-.256 E.03078
G1 X118.511 Y106.224 E.10882
G1 X118.511 Y105.04 E.03318
G1 X115.508 Y108.044 E.11906
G2 X115.139 Y107.229 I-2.347 J.572 E.02522
G1 X118.042 Y104.326 E.11508
G1 X116.858 Y104.326 E.03318
G1 X114.682 Y106.502 E.08625
G2 X114.148 Y105.852 I-3.486 J2.317 E.02361
G1 X115.674 Y104.326 E.06048
G1 X115.674 Y103.142 E.03318
G1 X113.498 Y105.318 E.08627
G2 X112.77 Y104.862 I-1.584 J1.717 E.02421
G1 X115.674 Y101.958 E.11511
G1 X115.674 Y101.489 E.01316
G1 X114.96 Y101.489 E.02002
G1 X111.955 Y104.493 E.11909
G2 X111.03 Y104.234 I-1.176 J2.421 E.02707
G1 X113.776 Y101.489 E.10884
G1 X112.761 Y101.489 E.02846
M205 X8 Y8
G1 X111.24 Y101.489 F7200
M205 X12 Y12
G1 F4800
G1 X110.225 Y101.489 E.02846
G1 X105.929 Y105.784 E.17027
G2 X101.489 Y110.225 I72.227 J76.667 E.17603
G1 X101.489 Y109.041 E.03318
G1 X109.041 Y101.489 E.29935
G1 X107.857 Y101.489 E.03318
G1 X101.489 Y107.857 E.25242
G1 X101.489 Y106.842 E.02846
M205 X8 Y8
G1 X101.489 Y105.321 F7200
M205 X12 Y12
G1 F4800
G1 X101.489 Y104.326 E.02789
G1 X102.652 Y104.326 E.03261
G1 X101.489 Y105.489 E.04612
G1 X101.489 Y106.673 E.03318
G1 X103.836 Y104.326 E.09304
G1 X104.326 Y104.326 E.01373
G1 X104.326 Y103.836 E.01373
G1 X106.673 Y101.489 E.09304
G1 X105.489 Y101.489 E.03318
G1 X104.326 Y102.652 E.04612
G1 X104.326 Y101.489 E.03261
G1 X105.321 Y101.489 E.02789
G1 E-4.2 F2400
;WIPE_START
G1 F4800
G1 X104.326 Y101.489 E-.85072
G1 X104.326 Y102.494 E-.85928
;WIPE_END
G1 E-.09 F2400
M205 X8 Y8
G1 Z.6 F7200
G1 X108.724 Y104.286 Z.6
G1 Z.4
G1 E6 F2400
M205 X12 Y12
G1 F4800
G3 X109.943 Y104.138 I1.012 J3.245 E.03461
G1 X112.592 Y101.489 E.10501
G1 X111.408 Y101.489 E.03318
G1 X108.563 Y104.335 E.1128
G2 X107.241 Y104.853 I.683 J3.682 E.04003
G1 E-4.2 F2400
;WIPE_START
G1 F4800
G1 X108.563 Y104.335 E-1.21368
G1 X108.973 Y103.924 E-.49632
;WIPE_END
G1 E-.09 F2400
M205 X8 Y8
G1 Z.6 F7200
G1 X104.853 Y107.242 Z.6
G1 Z.4
G1 E6 F2400
M205 X12 Y12
G1 F4800
G2 X104.332 Y108.565 I3.181 J2.017 E.0401
G1 X101.489 Y111.408 E.11269
G1 X101.489 Y112.592 E.03318
G1 X104.134 Y109.947 E.10487
G2 X104.232 Y111.033 I3.304 J.25 E.03071
G1 X101.489 Y113.776 E.10874
G1 X101.489 Y114.96 E.03318
G1 X104.49 Y111.958 E.11898
G2 X104.859 Y112.773 I2.342 J-.569 E.02522
G1 X101.958 Y115.674 E.11499
G1 X103.142 Y115.674 E.03318
G1 X105.316 Y113.5 E.08616
G2 X105.85 Y114.15 I3.527 J-2.356 E.02361
G1 X104.326 Y115.674 E.06042
G1 X104.326 Y116.858 E.03318
G1 X106.5 Y114.684 E.08617
G2 X107.227 Y115.14 I1.573 J-1.7 E.02421
G1 X104.326 Y118.042 E.115
G1 X104.326 Y118.511 E.01316
G1 X105.04 Y118.511 E.02002
G1 X108.042 Y115.509 E.11901
G2 X108.968 Y115.767 I1.184 J-2.455 E.02708
G1 X106.224 Y118.511 E.10877
G1 X107.408 Y118.511 E.03318
G1 X110.055 Y115.864 E.10491
G2 X111.437 Y115.666 I.172 J-3.717 E.03936
G1 X108.592 Y118.511 E.11277
G1 X109.775 Y118.511 E.03318
G1 X114.073 Y114.214 E.17033
G2 X118.511 Y109.775 I-72.326 J-76.765 E.17597
G1 X118.511 Y110.959 E.03318
G1 X110.959 Y118.511 E.29935
G1 X112.143 Y118.511 E.03318
G1 X118.511 Y112.143 E.25242
G1 X118.511 Y113.327 E.03318
G1 X116.164 Y115.674 E.09304
G1 X115.674 Y115.674 E.01373
G1 X115.674 Y116.164 E.01373
G1 X113.327 Y118.511 E.09304
G1 X114.511 Y118.511 E.03318
G1 X115.674 Y117.348 E.04612
G1 X115.674 Y118.511 E.03261
G1 X114.679 Y118.511 E.02789
G1 E-4.2 F2400
;WIPE_START
G1 F4800
G1 X115.674 Y118.511 E-.85072
G1 X115.674 Y117.506 E-.85928
;WIPE_END
G1 E-.09 F2400
M205 X8 Y8
G1 Z.6 F7200
G1 X116.332 Y115.674 Z.6
G1 Z.4
G1 E6 F2400
M205 X12 Y12
G1 F4800
G1 X117.348 Y115.674 E.02846
G1 X118.511 Y114.511 E.04612
G1 X118.511 Y115.674 E.03261
G1 X117.516 Y115.674 E.02789
G1 E-4.2 F2400
;WIPE_START
G1 F4800
G1 X118.511 Y115.674 E-.85072
G1 X118.511 Y114.669 E-.85928
;WIPE_END
G1 E-.09 F2400
M205 X8 Y8
G1 Z.6 F7200
G1 X108.966 Y112.489 Z.6
G1 Z.4
G1 E6 F2400
M204 S250
M205 X12 Y12
;TYPE:Overhang wall
;WIDTH:0.449999
G1 F1800
G1 X108.5 Y112.24 E.01788
G1 X108.093 Y111.907 E.0178
G1 X107.758 Y111.499 E.01787
G1 X107.51 Y111.033 E.01787
G1 X107.355 Y110.526 E.01795
G1 X107.303 Y110.003 E.01779
G1 X107.355 Y109.477 E.01789
G1 X107.51 Y108.971 E.01791
G1 X107.759 Y108.505 E.01788
G1 X108.093 Y108.096 E.01787
G1 X108.5 Y107.763 E.0178
G1 X108.966 Y107.514 E.01788
G1 X109.474 Y107.36 E.01797
G1 X109.996 Y107.308 E.01776
G1 X110.522 Y107.36 E.01789
G1 X111.028 Y107.514 E.0179
G1 X111.494 Y107.763 E.01788
G1 X111.903 Y108.096 E.01785
G1 X112.237 Y108.505 E.01787
G1 X112.486 Y108.971 E.01788
G1 X112.64 Y109.477 E.0179
G1 X112.691 Y110.001 E.01782
G1 X112.64 Y110.527 E.01789
G1 X112.486 Y111.033 E.0179
G1 X112.237 Y111.499 E.01788
G1 X111.903 Y111.907 E.01785
G1 X111.494 Y112.24 E.01785
G1 X111.028 Y112.489 E.01788
G1 X110.522 Y112.644 E.01791
G1 X109.996 Y112.696 E.01789
G1 X109.474 Y112.644 E.01776
G1 X109.004 Y112.501 E.01663
M204 S500
M205 X8 Y8
