; HEADER_BLOCK_START
; generated by Creality_Print V7.0.0.4127 on 2026-01-16 at 20:16:20
; total layer number: 343
; filament_density: 1.24
; filament_diameter: 1.75
; max_z_height: 68.60
; creality_uuid: c0ec5de6-f118-48f2-bccb-1be0464df574
; HEADER_BLOCK_END

; MINX = 43.14
; MINY = 30.84
; MINZ = 0.00
; MAXX = 179.99
; MAXY = 198.94
; MAXZ = 68.66

; multicolor_method = 0 
; THUMBNAIL_BLOCK_START

;
; THUMBNAIL_BLOCK_END

; external perimeters extrusion width = 0.42mm
; perimeters extrusion width = 0.45mm
; infill extrusion width = 0.45mm
; solid infill extrusion width = 0.45mm
; top infill extrusion width = 0.42mm
; support material extrusion width = 0.38mm
; first layer extrusion width = 0.50mm

; external perimeters extrusion width = 0.42mm
; perimeters extrusion width = 0.45mm
; infill extrusion width = 0.45mm
; solid infill extrusion width = 0.45mm
; top infill extrusion width = 0.42mm
; support material extrusion width = 0.38mm
; first layer extrusion width = 0.50mm

; EXECUTABLE_BLOCK_START
M73 P0 R225
M201 X500 Y500 Z100 E5000
M203 X500 Y500 Z10 E50
M204 P5000 R500 T5000
M205 X12.00 Y12.00 Z0.40 E5.00 ; sets the jerk limits, mm/sec
; max_print_temp = 60,200
;TYPE:Custom
G90 ; use absolute coordinates
M83 ; extruder relative mode
M140 S60 ; set final bed temp
M104 S150 ; set temporary nozzle temp to prevent oozing during homing
G4 S10 ; allow partial nozzle warmup
G28 ; home all axis
G1 Z50 F240
G1 X2 Y10 F3000
M104 S200 ; set final nozzle temp
M190 S60 ; wait for bed temp to stabilize
M109 S200 ; wait for nozzle temp to stabilize
M73 P0 R224
G1 Z0.28 F240
G92 E0
G1 Y140 E10 F1500 ; prime the nozzle
G1 X2.3 F5000
G92 E0
G1 Y10 E10 F1200 ; prime the nozzle
G92 E0
G90
G21
M83 ; use relative distances for extrusion
; filament start gcode
G1 E-6 F2400
G1 Z.2 F5760
M106 S0
;LAYER_CHANGE
;:0.2
;HEIGHT:0.2
;BEFORE_LAYER_CHANGE
;0.2
G92 E0
;TIME_ELAPSED:101.553925
;_SET_FAN_SPEED_CHANGING_LAYER
M204 S500
M205 X8 Y8
; OBJECT_ID: 85
; printing object huge_egg_from_3mf.stl_A id:34260954128168 copy 0
G1 X71.626 Y156.459 Z.4 F5760
G1 Z.2
G1 E6 F2400
;TYPE:Support interface
;WIDTH:0.38
G1 F1200
G1 X71.626 Y156.159 E.00843
G1 X72.341 Y156.159 E.02002
G1 X77.516 Y161.334 E.20514
G2 X76.682 Y161.684 I.616 J2.637 E.02547
G1 X71.626 Y156.628 E.20041
G1 X71.626 Y157.812 E.03318
G1 X75.972 Y162.157 E.17224
G2 X75.384 Y162.754 I.98 J1.552 E.02367
G1 X71.626 Y158.996 E.14896
G1 X71.626 Y160.179 E.03318
G1 X74.903 Y163.456 E.12989
G2 X74.55 Y164.287 I1.665 J1.199 E.0255
G1 X71.626 Y161.363 E.11588
G1 X71.626 Y160.348 E.02846
G1 E-4.2 F2400
;WIPE_START
G1 F1200
G1 X71.626 Y161.363 E-.86805
G1 X72.323 Y162.06 E-.84195
;WIPE_END
G1 E-.09 F2400
G1 Z.4 F5760
G1 X76.397 Y167.244 Z.4
G1 Z.2
G1 E6 F2400
G1 F1200
G2 X77.66 Y167.397 I.879 J-1.97 E.03619
G1 X82.975 Y172.712 E.21065
G1 X82.975 Y173.181 E.01316
G1 X82.26 Y173.181 E.02002
G1 X76.247 Y167.168 E.23835
G3 X74.617 Y165.671 I.632 J-2.324 E.06446
G3 X74.582 Y165.502 I.274 J-.146 E.00489
G1 X71.626 Y162.547 E.11714
G1 X71.626 Y163.731 E.03318
G1 X81.077 Y173.181 E.37459
G1 X79.893 Y173.181 E.03318
G1 X71.626 Y164.915 E.32766
G1 X71.626 Y165.93 E.02846
G1 X71.626 Y167.451 F5760
G1 F1200
G1 X71.626 Y168.466 E.02846
G1 X73.504 Y170.344 E.07444
G1 X72.32 Y170.344 E.03318
G1 X71.626 Y169.65 E.02751
G1 X71.626 Y170.344 E.01945
G1 X72.152 Y170.344 E.01473
G1 E-4.2 F2400
;WIPE_START
G1 F1200
G1 X71.626 Y170.344 E-.44937
G1 X71.626 Y169.65 E-.59347
G1 X72.178 Y170.202 E-.66717
;WIPE_END
G1 E-.09 F2400
G1 Z.4 F5760
G1 X74.463 Y172.318 Z.4
G1 Z.2
G1 E6 F2400
G1 F1200
G1 X74.463 Y171.303 E.02846
G1 X76.341 Y173.181 E.07444
G1 X75.158 Y173.181 E.03318
G1 X74.463 Y172.487 E.02751
G1 X74.463 Y173.181 E.01945
G1 X74.989 Y173.181 E.01473
G1 X76.51 Y173.181 F5760
G1 F1200
G1 X77.525 Y173.181 E.02846
G1 X71.626 Y167.282 E.23382
G1 X71.626 Y166.098 E.03318
G1 X78.709 Y173.181 E.28074
G1 X79.724 Y173.181 E.02846
G1 E-4.2 F2400
;WIPE_START
G1 F1200
G1 X78.709 Y173.181 E-.86805
G1 X78.013 Y172.485 E-.84195
;WIPE_END
G1 E-.09 F2400
G1 Z.4 F5760
G1 X82.975 Y170.513 Z.4
G1 Z.2
G1 E6 F2400
G1 F1200
G1 X82.975 Y171.528 E.02846
G1 X78.667 Y167.22 E.17075
G2 X79.519 Y166.889 I-.368 J-2.208 E.02582
G1 X82.975 Y170.344 E.13696
G1 X84.159 Y170.344 E.03318
G1 X80.254 Y166.44 E.15475
G2 X80.883 Y165.885 I-1.456 J-2.283 E.0236
G1 X85.342 Y170.344 E.17675
G1 X85.812 Y170.344 E.01316
G1 X85.812 Y169.63 E.02002
G1 X81.384 Y165.201 E.17553
G2 X81.733 Y164.367 I-2.878 J-1.698 E.02543
M73 P0 R223
G1 X85.812 Y168.446 E.16166
G1 X85.812 Y167.262 E.03318
G1 X81.794 Y163.244 E.15927
G2 X79.785 Y161.236 I-2.5 J.491 E.08444
G1 X74.708 Y156.159 E.20125
G1 X73.524 Y156.159 E.03318
G1 X78.508 Y161.142 E.19755
G3 X79.621 Y161.197 I.356 J4.087 E.03133
G1 E-4.2 F2400
;WIPE_START
G1 F1200
G1 X78.508 Y161.142 E-.95272
G1 X77.882 Y160.516 E-.75728
;WIPE_END
G1 E-.09 F2400
G1 Z.4 F5760
G1 X84.817 Y158.996 Z.4
G1 Z.2
G1 E6 F2400
G1 F1200
G1 X85.812 Y158.996 E.02789
G1 X85.812 Y160.159 E.03261
G1 X84.648 Y158.996 E.04612
G1 X83.633 Y158.996 E.02846
G1 E-4.2 F2400
;WIPE_START
G1 F1200
G1 X84.648 Y158.996 E-.86806
G1 X85.345 Y159.692 E-.84194
;WIPE_END
G1 E-.09 F2400
G1 Z.4 F5760
G1 X81.98 Y156.159 Z.4
G1 Z.2
G1 E6 F2400
G1 F1200
G1 X82.975 Y156.159 E.02789
G1 X82.975 Y157.322 E.03261
G1 X81.811 Y156.159 E.04612
G1 X80.627 Y156.159 E.03318
G1 X82.975 Y158.506 E.09305
G1 X82.975 Y158.996 E.01373
G1 X83.464 Y158.996 E.01373
G1 X85.812 Y161.343 E.09305
G1 X85.812 Y162.527 E.03318
G1 X79.444 Y156.159 E.25243
G1 X78.26 Y156.159 E.03318
G1 X85.812 Y163.711 E.29935
G1 X85.812 Y164.894 E.03318
G1 X77.076 Y156.159 E.34627
G1 X75.892 Y156.159 E.03318
G1 X85.812 Y166.078 E.3932
G1 X85.812 Y165.063 E.02846
G1 E-4.2 F2400
;WIPE_START
G1 F1200
G1 X85.812 Y166.078 E-.86806
G1 X85.115 Y165.382 E-.84195
;WIPE_END
G1 E-.09 F2400
G1 Z.4 F5760
G1 X90.567 Y148.566 Z.4
G1 Z.2
G1 E6 F2400
;TYPE:Support
;WIDTH:0.5
G1 F1200
G1 X93.404 Y148.566 E.10783
G1 X93.404 Y157.077 E.32348
G1 X96.241 Y157.077 E.10783
G1 X96.241 Y159.914 E.10783
G1 X99.079 Y159.914 E.10783
G1 X99.079 Y169.425 E.36148
G1 X96.241 Y169.425 E.10783
G1 X96.241 Y175.099 E.21565
G1 X93.404 Y175.099 E.10783
G1 X93.404 Y177.937 E.10783
G1 X90.567 Y177.937 E.10783
G1 X90.567 Y180.774 E.10783
G1 X69.708 Y180.774 E.79279
G1 X69.708 Y177.937 E.10783
G1 X64.034 Y177.937 E.21565
G1 X64.034 Y172.262 E.21565
G1 X61.197 Y172.262 E.10783
G1 X61.197 Y154.24 E.68496
G1 X64.034 Y154.24 E.10783
G1 X64.034 Y151.403 E.10783
G1 X66.871 Y151.403 E.10783
G1 X66.871 Y148.566 E.10783
G1 X69.708 Y148.566 E.10783
G1 X69.708 Y145.729 E.10783
G1 X90.567 Y145.729 E.79279
G1 X90.567 Y148.497 E.10522
G1 E-4.2 F2400
;WIPE_START
G1 F1200
G1 X90.567 Y146.497 E-1.71
;WIPE_END
G1 E-.09 F2400
G1 Z.4 F5760
G1 X71.208 Y158.827 Z.4
G1 Z.2
G1 E6 F2400
G1 F1200
G1 X71.208 Y155.74 E.11733
G1 X83.393 Y155.74 E.46313
G1 X83.393 Y158.577 E.10783
G1 X86.23 Y158.577 E.10783
G1 X86.23 Y170.763 E.46313
G1 X83.393 Y170.763 E.10783
G1 X83.393 Y173.6 E.10783
G1 X74.045 Y173.6 E.3553
G1 X74.045 Y170.763 E.10783
G1 X71.208 Y170.763 E.10783
G1 X71.208 Y158.896 E.45102
G1 E-4.2 F2400
;WIPE_START
G1 F1200
G1 X71.208 Y160.896 E-1.71
;WIPE_END
G1 E-.09 F2400
G1 Z.4 F5760
G1 X96.371 Y169.014 Z.4
G1 Z.2
G1 E6 F2400
G1 F1200
G1 X96.092 Y169.014 E.01062
G1 X96.092 Y160.326 E.33021
G1 X96.599 Y160.326 E.0193
G1 X96.599 Y169.014 E.33021
G1 X97.107 Y169.014 E.0193
G1 X97.107 Y160.326 E.33021
G1 X97.615 Y160.326 E.0193
G1 X97.615 Y169.014 E.33021
G1 X98.123 Y169.014 E.0193
G1 X98.123 Y160.326 E.33021
G1 X98.667 Y160.326 E.02068
G1 X98.667 Y169.014 E.33021
G1 X98.352 Y169.014 E.01199
G1 E-4.2 F2400
;WIPE_START
G1 F1200
G1 X98.667 Y169.014 E-.26983
G1 X98.667 Y167.33 E-1.44017
;WIPE_END
G1 E-.09 F2400
G1 Z.4 F5760
G1 X90.784 Y177.525 Z.4
G1 Z.2
G1 E6 F2400
G1 F1200
G1 X90.505 Y177.525 E.01062
G1 X90.505 Y148.977 E1.085
G1 X91.013 Y148.977 E.0193
G1 X91.013 Y177.525 E1.085
G1 X91.521 Y177.525 E.0193
G1 X91.521 Y148.977 E1.085
G1 X92.029 Y148.977 E.0193
G1 X92.029 Y177.525 E1.085
G1 X92.537 Y177.525 E.0193
G1 X92.537 Y148.977 E1.085
G1 X92.993 Y148.977 E.01735
G1 X93.044 Y174.688 E.97717
G1 X93.552 Y174.688 E.0193
G1 X93.552 Y157.489 E.65369
G1 X94.06 Y157.489 E.0193
G1 X94.06 Y174.688 E.65369
G1 X94.568 Y174.688 E.0193
G1 X94.568 Y157.489 E.65369
G1 X95.076 Y157.489 E.0193
G1 X95.076 Y174.688 E.65369
G1 X95.584 Y174.688 E.0193
G1 X95.584 Y157.489 E.65369
G1 X95.83 Y157.489 E.00936
G1 X95.83 Y157.995 E.01926
G1 E-4.2 F2400
;WIPE_START
G1 F1200
G1 X95.83 Y157.489 E-.43334
G1 X95.584 Y157.489 E-.21065
G1 X95.584 Y158.735 E-1.066
;WIPE_END
G1 E-.09 F2400
G1 Z.4 F5760
G1 X71.435 Y180.362 Z.4
G1 Z.2
G1 E6 F2400
G1 F1200
G1 X71.714 Y180.362 E.01062
G1 X71.714 Y171.174 E.34921
G1 X72.222 Y171.174 E.0193
G1 X72.222 Y180.362 E.34921
G1 X72.73 Y180.362 E.0193
G1 X72.73 Y171.174 E.34921
G1 X73.238 Y171.174 E.0193
G1 X73.238 Y180.362 E.34921
G1 X73.745 Y180.362 E.0193
G1 X73.745 Y174.011 E.24139
G1 X74.253 Y174.011 E.0193
G1 X74.253 Y180.362 E.24139
G1 X74.761 Y180.362 E.0193
G1 X74.761 Y174.011 E.24139
G1 X75.269 Y174.011 E.0193
G1 X75.269 Y180.362 E.24139
G1 X75.777 Y180.362 E.0193
G1 X75.777 Y174.011 E.24139
G1 X76.285 Y174.011 E.0193
G1 X76.285 Y180.362 E.24139
G1 X76.793 Y180.362 E.0193
G1 X76.793 Y174.011 E.24139
G1 X77.301 Y174.011 E.0193
G1 X77.301 Y180.362 E.24139
G1 X77.808 Y180.362 E.0193
G1 X77.808 Y174.011 E.24139
G1 X78.316 Y174.011 E.0193
G1 X78.316 Y180.362 E.24139
G1 X78.824 Y180.362 E.0193
G1 X78.824 Y174.011 E.24139
G1 X79.332 Y174.011 E.0193
G1 X79.332 Y180.362 E.24139
G1 X79.84 Y180.362 E.0193
G1 X79.84 Y174.011 E.24139
G1 X80.348 Y174.011 E.0193
G1 X80.348 Y180.362 E.24139
G1 X80.856 Y180.362 E.0193
G1 X80.856 Y174.011 E.24139
G1 X81.363 Y174.011 E.0193
G1 X81.363 Y180.362 E.24139
G1 X81.871 Y180.362 E.0193
G1 X81.871 Y174.011 E.24139
G1 X82.379 Y174.011 E.0193
G1 X82.379 Y180.362 E.24139
G1 X82.887 Y180.362 E.0193
G1 X82.887 Y174.011 E.24139
G1 X83.395 Y174.011 E.0193
G1 X83.395 Y180.362 E.24139
G1 X83.903 Y180.362 E.0193
G1 X83.903 Y171.174 E.34921
G1 X84.411 Y171.174 E.0193
G1 X84.411 Y180.362 E.34921
G1 X84.919 Y180.362 E.0193
G1 X84.919 Y171.174 E.34921
G1 X85.426 Y171.174 E.0193
G1 X85.426 Y180.362 E.34921
G1 X85.934 Y180.362 E.0193
G1 X85.934 Y171.174 E.34921
G1 X86.442 Y171.174 E.0193
G1 X86.442 Y180.362 E.34921
G1 X86.95 Y180.362 E.0193
G1 X86.95 Y146.14 E1.30065
G1 X87.458 Y146.14 E.0193
G1 X87.458 Y180.362 E1.30065
G1 X87.966 Y180.362 E.0193
G1 X87.966 Y146.14 E1.30065
G1 X88.474 Y146.14 E.0193
G1 X88.474 Y180.362 E1.30065
G1 X88.981 Y180.362 E.0193
G1 X88.981 Y146.14 E1.30065
G1 X89.489 Y146.14 E.0193
M73 P0 R222
G1 X89.489 Y180.362 E1.30065
G1 X89.997 Y180.362 E.0193
G1 X89.997 Y146.14 E1.30065
G1 X90.156 Y146.14 E.00603
G1 X90.156 Y146.588 E.01701
G1 X85.147 Y158.166 F5760
G1 F1200
G1 X85.426 Y158.166 E.01062
G1 X85.426 Y146.14 E.45704
G1 X85.934 Y146.14 E.0193
G1 X85.934 Y158.166 E.45704
G1 X86.442 Y158.166 E.0193
G1 X86.442 Y146.14 E.45704
G1 X86.721 Y146.14 E.01062
G1 X83.805 Y157.741 F5760
G1 F1200
G1 X83.903 Y158.166 E.01657
G1 X83.903 Y146.14 E.45704
G1 X84.411 Y146.14 E.0193
G1 X84.411 Y158.166 E.45704
G1 X84.919 Y158.166 E.0193
G1 X84.919 Y146.14 E.45704
G1 X85.198 Y146.14 E.01062
G1 X77.529 Y155.329 F5760
G1 F1200
G1 X77.808 Y155.329 E.01062
G1 X77.808 Y146.14 E.34921
G1 X78.316 Y146.14 E.0193
G1 X78.316 Y155.329 E.34921
G1 X78.824 Y155.329 E.0193
G1 X78.824 Y146.14 E.34921
G1 X79.332 Y146.14 E.0193
G1 X79.332 Y155.329 E.34921
G1 X79.84 Y155.329 E.0193
G1 X79.84 Y146.14 E.34921
G1 X80.348 Y146.14 E.0193
G1 X80.348 Y155.329 E.34921
G1 X80.856 Y155.329 E.0193
G1 X80.856 Y146.14 E.34921
G1 X81.363 Y146.14 E.0193
G1 X81.363 Y155.329 E.34921
G1 X81.871 Y155.329 E.0193
G1 X81.871 Y146.14 E.34921
G1 X82.379 Y146.14 E.0193
M73 P1 R222
G1 X82.379 Y155.329 E.34921
G1 X82.887 Y155.329 E.0193
G1 X82.887 Y146.14 E.34921
G1 X83.395 Y146.14 E.0193
G1 X83.395 Y155.329 E.34921
G1 X83.116 Y155.329 E.01062
G1 X71.435 Y146.14 F5760
G1 F1200
G1 X71.714 Y146.14 E.01062
G1 X71.714 Y155.329 E.34921
G1 X72.222 Y155.329 E.0193
G1 X72.222 Y146.14 E.34921
G1 X72.73 Y146.14 E.0193
G1 X72.73 Y155.329 E.34921
G1 X73.238 Y155.329 E.0193
G1 X73.238 Y146.14 E.34921
G1 X73.745 Y146.14 E.0193
G1 X73.745 Y155.329 E.34921
G1 X74.253 Y155.329 E.0193
G1 X74.253 Y146.14 E.34921
G1 X74.761 Y146.14 E.0193
G1 X74.761 Y155.329 E.34921
G1 X75.269 Y155.329 E.0193
G1 X75.269 Y146.14 E.34921
G1 X75.777 Y146.14 E.0193
G1 X75.777 Y155.329 E.34921
G1 X76.285 Y155.329 E.0193
G1 X76.285 Y146.14 E.34921
G1 X76.793 Y146.14 E.0193
G1 X76.793 Y155.329 E.34921
G1 X77.301 Y155.329 E.0193
G1 X77.301 Y146.14 E.34921
G1 X77.58 Y146.14 E.01062
G1 E-4.2 F2400
;WIPE_START
G1 F1200
G1 X77.301 Y146.14 E-.23882
G1 X77.301 Y147.861 E-1.47118
;WIPE_END
G1 E-.09 F2400
G1 Z.4 F5760
G1 X71.485 Y171.174 Z.4
G1 Z.2
G1 E6 F2400
G1 F1200
G1 X71.206 Y171.174 E.01062
G1 X71.206 Y180.362 E.34921
G1 X70.698 Y180.362 E.0193
G1 X70.698 Y146.14 E1.30065
G1 X71.206 Y146.14 E.0193
G1 X71.206 Y155.329 E.34921
G1 X71.485 Y155.329 E.01062
G1 E-4.2 F2400
;WIPE_START
G1 F1200
G1 X71.206 Y155.329 E-.23882
G1 X71.206 Y153.608 E-1.47118
;WIPE_END
G1 E-.09 F2400
G1 Z.4 F5760
G1 X70.47 Y180.362 Z.4
G1 Z.2
G1 E6 F2400
G1 F1200
G1 X70.19 Y180.362 E.01062
G1 X70.19 Y146.14 E1.30065
G1 X70.47 Y146.14 E.01062
G1 E-4.2 F2400
;WIPE_START
G1 F1200
G1 X70.19 Y146.14 E-.23882
G1 X70.19 Y147.861 E-1.47118
;WIPE_END
G1 E-.09 F2400
G1 Z.4 F5760
G1 X66.407 Y151.814 Z.4
G1 Z.2
G1 E6 F2400
G1 F1200
G1 X66.127 Y151.814 E.01062
G1 X66.127 Y177.525 E.97717
G1 X66.635 Y177.525 E.0193
G1 X66.635 Y151.814 E.97717
G1 X67.143 Y151.814 E.0193
G1 X67.143 Y177.525 E.97717
G1 X67.651 Y177.525 E.0193
G1 X67.651 Y148.977 E1.085
G1 X68.159 Y148.977 E.0193
G1 X68.159 Y177.525 E1.085
G1 X68.667 Y177.525 E.0193
G1 X68.667 Y148.977 E1.085
G1 X69.175 Y148.977 E.0193
G1 X69.175 Y177.525 E1.085
G1 X69.683 Y177.525 E.0193
G1 X69.683 Y148.977 E1.085
G1 X69.403 Y148.977 E.01062
G1 X65.34 Y177.525 F5760
G1 F1200
G1 X65.62 Y177.525 E.01062
G1 X65.62 Y151.814 E.97717
G1 X65.112 Y151.814 E.0193
G1 X65.112 Y177.525 E.97717
G1 X64.604 Y177.525 E.0193
G1 X64.604 Y151.814 E.97717
G1 X64.445 Y151.814 E.00603
G1 X64.445 Y152.262 E.01701
G1 E-4.2 F2400
;WIPE_START
G1 F1200
G1 X64.445 Y151.814 E-.38272
G1 X64.604 Y151.814 E-.13572
G1 X64.604 Y153.208 E-1.19156
;WIPE_END
G1 E-.09 F2400
G1 Z.4 F5760
G1 X61.836 Y154.651 Z.4
G1 Z.2
G1 E6 F2400
G1 F1200
G1 X61.608 Y154.651 E.00866
G1 X61.608 Y171.851 E.65369
G1 X62.065 Y171.851 E.01735
G1 X62.065 Y154.651 E.65369
G1 X62.572 Y154.651 E.0193
G1 X62.572 Y171.851 E.65369
G1 X63.08 Y171.851 E.0193
G1 X63.08 Y154.651 E.65369
G1 X63.588 Y154.651 E.0193
G1 X63.588 Y171.851 E.65369
G1 X64.096 Y171.851 E.0193
G1 X64.096 Y154.651 E.65369
G1 X63.817 Y154.651 E.01062
G1 E-4.2 F2400
;WIPE_START
G1 F1200
G1 X64.096 Y154.651 E-.23882
G1 X64.096 Y156.372 E-1.47118
;WIPE_END
G1 E-.09 F2400
G1 Z.4 F5760
G1 X79.365 Y163.489 Z.4
G1 Z.2
G1 E6 F2400
;TYPE:Inner wall
;WIDTH:0.42334
G1 F1200
G1 X79.71 Y163.364 E.01162
;WIDTH:0.419666
G1 X79.942 Y163.426 E.00754
G1 X79.918 Y163.513 E.00283
G1 X79.66 Y163.761 E.01123
;WIDTH:0.42334
G1 X79.337 Y163.865 E.01072
G1 X79.117 Y163.815 E.00715
G1 X79.151 Y163.691 E.00405
G1 X79.333 Y163.512 E.00807
G1 X78.7 Y163.949 F5760
;TYPE:Outer wall
;WIDTH:0.499999
G1 F1200
G1 X78.69 Y163.706 E.00924
G1 X78.86 Y163.38 E.01398
G1 X79.141 Y163.131 E.01427
G1 X79.635 Y162.95 E.01997
G1 X80.006 Y162.995 E.01421
G1 X80.244 Y163.118 E.0102
G1 X80.36 Y163.379 E.01084
G1 X80.341 Y163.548 E.00648
G1 X80.212 Y163.822 E.01152
G1 X79.858 Y164.137 E.018
G1 X79.438 Y164.272 E.01675
G1 X79.068 Y164.26 E.01408
G1 X78.831 Y164.139 E.01013
G1 X78.722 Y163.982 E.00726
; stop printing object huge_egg_from_3mf.stl_A id:34260954128168 copy 0
; OBJECT_ID: 95
; printing object huge_egg_from_3mf.stl_B id:5665061864746 copy 0
G1 E-4.2 F2400
;WIPE_START
G1 F1200
G1 X78.69 Y163.706 E-.23752
G1 X78.86 Y163.38 E-.31448
G1 X79.141 Y163.131 E-.32102
G1 X79.635 Y162.95 E-.44926
G1 X80.006 Y162.995 E-.31963
G1 X80.077 Y163.031 E-.06809
;WIPE_END
